X: 14
T: 
C: Armand Aromin
H: 10/28/04
M: 2/4
L: 1/8
R: Bouree
K:Gmaj
B2 d2 | cB AG | F2 A2 | cB AG |
B2 d2 | cB AG | FG Ac | BG G2 :|
f2 g2 | a^g a2 | f2 g2 | a^g ab |
ag fe | d3 b | ag fe | d4 :|
